X:1
T:You've Got a Friend in Me
C:Randy Newman
L:1/8
M:4/4
Q:120
K:C
"C"E2GE"G7"A2G2|"C7"E2z2z4|"F"A2cAc2A2|"C"G2z2z4|
"F"A2F2"C"G2C2|"E7"B2B2"Am"cAG2|"F"cAG2"C"AEC2|"E7"E2E2"Am"E2z2|
"F"A2Bd"C"cGEC|"E"^D2E2"Am"C2A2|"D7"D4"G7"G4|"C"C4"A7"A4|
"D7"D4"G7"G4|"C"C4"A7"A4|"D7"D4"G7"G4|"C"C8|]
